X: 21833
T: JOHN ANDERSON MY JO
Q: "Moderately slow"
%R: air
B: W. Hamilton "Universal Tune-Book" Vol. 2 Glasgow 1846 p.183 #3
S: http://s3-eu-west-1.amazonaws.com/itma.dl.printmaterial/book_pdfs/hamiltonvol2web.pdf
Z: 2016 John Chambers <jc:trillian.mit.edu>
M: C
L: 1/8
K: Bm
% - - - - - - - - - - - - - - - - - - - - - - - - -
B2 |\
F2B2 B2c2 | d4 d2(ed) | c2B2 A2^G2 | A4 z2A2 |\
F2B2 B2c2 | d4 d2e2 | f3e d2e2 | f4 z2a2 |\
f3e d2f2 | a4 g2f2 | e3d c2d2 | e4 z2de |\
f2d2 e2c2 | d3B Hf2(BA) | F2B2 (dc)(B^A) | B4 z2 |]
% - - - - - - - - - - - - - - - - - - - - - - - - -

%%sep 1 1 500
%%sep 1 1 500

